X:056
T: Thousands of Bottles I've Crack'd in My Time
N: O'Farrell's Pocket Companion v.1 (Sky ed. p.43)
N: "Irish"
M: 3/4
L: 1/8
R: waltz
Q: 125
K: D
(3ABc|d2 A2 fe|d2 A3B| c2 {e}dcBA|B4 d2|BAGFED|
D2 F2 A2|B2 d2 d2| {e}d4 :|(3def|g>b ag fe|f>a gf ed|
e>f gfed|B4 d>c|BAGF ED|D2 F2 A2|B2 d2 d>e|d4 :|
